X: 39295
T: Take A Message To Julie
R: reel
M: 4/4
K: Edorian
|:"Em"EBAG AE E2|"A"GBdB cA A2|"Em"EBAG AE E2|"A"GBdG- GBdB|
"Em"EBAG AE E2|"A"GBdB cA A2|"Em"edBA "A"BE E2|1 "D/B" DE F/E/D "Em"E3D:|2 "D/H"DEFD "Em"E3d||
|:"Em"eB B2 GBeB|"D"dA A2 FAdA|"C"=cG G2 EGcG|"A"cAA"D"d- dA "D#"e2|
"Em"eB B2 GBeB|"D"dA A2 FAdA|"C"EDGB "A"AE E2|1 "D/B"DE F/E/D "Em"E3d:|2 "D/H"DE F/E/D "Em"E3D||

